X:1
T: Mrs Mary Grant McInnes of Dandaleith
C:William Marshall
R:Strathspey
Q: 128
K:F
M:4/4
L:1/16
|:f2|cF3 c3A cF3 f3d|cF3 c3A G4 G2A2|cF3 c3A cF3 a3g|fd3 c3A F4 F2f2|
cF3 c3A cF3 f3d|cF3 c3A G4 G2A2|cF3 c3A cF3 a3g|fd3 c3A F4 F2f2|
c2f2 A2f2 c2f2 a2f2|df3 c3A G4 G2f2|d2f2 c2f2 A2f2 a2g2|fd3 c3A F4 F2f2|
c2f2 A2f2 c2f2 a2f2|df3 c3A G4 G2f2|F2A2 G2B2 A2c2 a3g|fd3 c3A F4 F2:|
